X: 145
T:Tiree Bridal Song
R:waltz
Z:added by Alf Warnock - alf0@rogers.com - www.alfwarnock.info/alfs
M:3/4
L:1/8
K:D
D2|"D"F4 G2|A4 A2|"Em"G2 F2"A7" E2|"D"D4 D2|
"D"F4 G2|"A7"A2 B2 c2|"D"d6|"D7"A4 c2|
"G"B2 d4|"A7"A4 G2|"Bm"F4 D2|"G"G4 B2|
"D"A2 A4|"C"C4 E2|"D"D6|D6|
"D"F2 F2 G2|A6|"Em"G2 F2"A7" E2|"D"D6|
F2 F2 G2|"A7"A2 B2 c2|"D"d6|"D7"A6|
"G"B2 d4|"A7"A4 G2|"Bm"F4 D2|"G"G4 B2|
"D"A2 A4|"C"C4 E2|"D"D6|D4 D|]
